client/public/img/game/shared/skins/printer_base.svg

<?xml version="1.0" encoding="UTF-8" standalone="no"?>
<!-- Created with Inkscape (http://www.inkscape.org/) -->

<svg
   width="90"
   height="90"
   viewBox="0 0 23.812501 23.812501"
   version="1.1"
   id="svg5"
   xmlns="http://www.w3.org/2000/svg"
   xmlns:svg="http://www.w3.org/2000/svg">
  <defs
     id="defs2">
    <linearGradient
       id="linearGradient11133">
      <stop
         style="stop-color:#4b4b4b;stop-opacity:1;"
         offset="0"
         id="stop11131" />
    </linearGradient>
    <clipPath
       clipPathUnits="userSpaceOnUse"
       id="clipPath3128">
      <circle
         style="fill:#ffffff;fill-opacity:1;stroke:none;stroke-width:0.260903;stroke-linecap:round;stroke-linejoin:round;stroke-miterlimit:10;stroke-dasharray:none;stroke-opacity:1"
         id="circle3130"
         cx="11.906251"
         cy="11.906251"
         r="11.906251" />
    </clipPath>
    <clipPath
       clipPathUnits="userSpaceOnUse"
       id="clipPath13426">
      <circle
         style="fill:#ffffff;fill-opacity:1;stroke:none;stroke-width:0.260903;stroke-linecap:round;stroke-linejoin:round;stroke-miterlimit:10;stroke-dasharray:none;stroke-opacity:1"
         id="circle13428"
         cx="11.906251"
         cy="11.906251"
         r="11.906251" />
    </clipPath>
    <clipPath
       clipPathUnits="userSpaceOnUse"
       id="clipPath3128-3">
      <circle
         style="fill:#ffffff;fill-opacity:1;stroke:none;stroke-width:0.260903;stroke-linecap:round;stroke-linejoin:round;stroke-miterlimit:10;stroke-dasharray:none;stroke-opacity:1"
         id="circle3130-6"
         cx="11.906251"
         cy="11.906251"
         r="11.906251" />
    </clipPath>
    <clipPath
       clipPathUnits="userSpaceOnUse"
       id="clipPath13426-7">
      <circle
         style="fill:#ffffff;fill-opacity:1;stroke:none;stroke-width:0.260903;stroke-linecap:round;stroke-linejoin:round;stroke-miterlimit:10;stroke-dasharray:none;stroke-opacity:1"
         id="circle13428-5"
         cx="11.906251"
         cy="11.906251"
         r="11.906251" />
    </clipPath>
    <clipPath
       clipPathUnits="userSpaceOnUse"
       id="clipPath24235-1">
      <circle
         style="fill:#000000;fill-opacity:1;stroke:none;stroke-width:0.260903;stroke-linecap:round;stroke-linejoin:round;stroke-miterlimit:10;stroke-dasharray:none;stroke-opacity:1"
         id="circle24237-5"
         cx="-11.906251"
         cy="11.906251"
         r="11.906251"
         transform="rotate(-90)" />
    </clipPath>
  </defs>
  <g
     id="layer1">
    <path
       id="rect24125-7-4-8-9-3"
       style="fill:#f2f2f2;stroke-width:0.550016;stroke-linecap:square"
       d="M 11.90625,5.9999999e-8 A 11.906251,11.906251 0 0 0 2.15e-7,11.90625 11.906251,11.906251 0 0 0 11.90625,23.812501 11.906251,11.906251 0 0 0 23.812501,11.90625 11.906251,11.906251 0 0 0 11.90625,5.9999999e-8 Z" />
    <path
       id="rect1092-8-7-1-0"
       style="fill:#f7ff00;stroke-width:0.914763;stroke-linecap:round;stroke-linejoin:round"
       d="M 0.24805021,14.287539 A 11.906251,11.906251 0 0 0 1.0030432,16.66879 H 22.809464 a 11.906251,11.906251 0 0 0 0.754993,-2.381251 z" />
    <path
       id="rect1092-6-0-6-3-2-9-8-4"
       style="fill:#00faff;stroke-width:0.914763;stroke-linecap:round;stroke-linejoin:round"
       d="m 1.0030432,16.668711 a 11.906251,11.906251 0 0 0 1.388029,2.38125 H 21.421435 a 11.906251,11.906251 0 0 0 1.388029,-2.38125 z" />
    <path
       id="rect457-6-8-5"
       style="fill:#262626;stroke-width:1.17511;stroke-linecap:round;stroke-linejoin:round"
       d="m 2.3910702,4.762448 a 11.906251,11.906251 0 0 0 -2.14302199,4.7625 H 23.564455 a 11.906251,11.906251 0 0 0 -2.143022,-4.7625 z" />
    <g
       id="g62431"
       transform="translate(-16.024137,-64.424105)">
      <path
         id="rect1943-31-6-9-1"
         style="fill:#ff00ea;fill-opacity:1;stroke:none;stroke-width:0.587268;stroke-linecap:square;stroke-linejoin:miter;stroke-dasharray:none;stroke-opacity:1"
         d="m 29.837427,70.129692 v 3.027603 l -3.814075,-1.513802 z" />
      <path
         id="rect1943-3-4-3-0-1"
         style="fill:#00faff;fill-opacity:1;stroke:none;stroke-width:0.587268;stroke-linecap:square;stroke-linejoin:miter;stroke-dasharray:none;stroke-opacity:1"
         d="m 35.3602,69.978312 v 3.178983 l -3.814076,-1.513802 z" />
      <path
         id="rect1943-3-7-9-9-8-5"
         style="fill:#f7ff00;fill-opacity:1;stroke:none;stroke-width:0.587268;stroke-linecap:square;stroke-linejoin:miter;stroke-dasharray:none;stroke-opacity:1"
         d="m 24.314653,70.129692 v 3.027603 l -3.814076,-1.513802 z" />
    </g>
    <path
       id="rect1092-6-8-6-9-6-1"
       style="fill:#ff00ea;stroke-width:0.746901;stroke-linecap:round;stroke-linejoin:round"
       d="m 0.68988421,15.875016 a 11.906251,11.906251 0 0 0 0.69556499,1.5875 H 22.427059 a 11.906251,11.906251 0 0 0 0.695565,-1.5875 z" />
  </g>
</svg>

<svg xmlns="http://www.w3.org/2000/svg" width="90" height="90" viewBox="0 0 23.813 23.813"><path d="M11.906 0A11.906 11.906 0 0 0 0 11.906a11.906 11.906 0 0 0 11.906 11.907 11.906 11.906 0 0 0 11.907-11.907A11.906 11.906 0 0 0 11.906 0" style="fill:#f2f2f2;stroke-width:.550016;stroke-linecap:square"/><path d="M.248 14.288a12 12 0 0 0 .755 2.38h21.806a12 12 0 0 0 .755-2.38z" style="fill:#f7ff00;stroke-width:.914763;stroke-linecap:round;stroke-linejoin:round"/><path d="M1.003 16.669a12 12 0 0 0 1.388 2.381h19.03a12 12 0 0 0 1.388-2.381z" style="fill:#00faff;stroke-width:.914763;stroke-linecap:round;stroke-linejoin:round"/><path d="M2.391 4.762A11.9 11.9 0 0 0 .248 9.525h23.316a11.9 11.9 0 0 0-2.143-4.763z" style="fill:#262626;stroke-width:1.17511;stroke-linecap:round;stroke-linejoin:round"/><path d="M29.837 70.13v3.027l-3.814-1.514z" style="fill:#ff00ea;fill-opacity:1;stroke:none;stroke-width:.587268;stroke-linecap:square;stroke-linejoin:miter;stroke-dasharray:none;stroke-opacity:1" transform="translate(-16.024 -64.424)"/><path d="M35.36 69.978v3.18l-3.814-1.515z" style="fill:#00faff;fill-opacity:1;stroke:none;stroke-width:.587268;stroke-linecap:square;stroke-linejoin:miter;stroke-dasharray:none;stroke-opacity:1" transform="translate(-16.024 -64.424)"/><path d="M24.315 70.13v3.027L20.5 71.643z" style="fill:#f7ff00;fill-opacity:1;stroke:none;stroke-width:.587268;stroke-linecap:square;stroke-linejoin:miter;stroke-dasharray:none;stroke-opacity:1" transform="translate(-16.024 -64.424)"/><path d="M.69 15.875a12 12 0 0 0 .695 1.588h21.042a12 12 0 0 0 .696-1.588z" style="fill:#ff00ea;stroke-width:.746901;stroke-linecap:round;stroke-linejoin:round"/></svg>
